X: 333
P: Longways for as many as will
M: C|
L: 1/8
K: C
EFGA G2E2 | F2D2 E2(DC) | B,2 D4 GF |\
EFGA G2F2 | c2E2 F2(ED) | E2 C4 :: gf |\
efga g2e2 | f2d2 e2(dc) | B3c d2(ef) |
gagf e2(fg) | agfe d2ef | e2 c4 :: _B2 |\

